X:5
T:Mist on the Valley, The
S:Charley Higgins
R:jig
E:7
I:speed 350
M:6/8
K:G
f|gdB {c}BAB|GBA G{c}Bd|gdB {c}BAB|GBd {aed}e2f|gdB {c}BAB|GBA G{c}Bd|gfe {a}.fdB|(4G.B.cd {aed}e2:|
f|{a}gfg {c}bag|{fg}fef {b}afd|{a}gfg {c}bag|{b}afd {aed}e2f|{a}gfg {c}bag|{fg}fef {b}afd|{a}gfe {a}.fdB|(4G.B.cd {aed}e2:|
<end>
<start>
